src/basic/800/u1F5D9-close.svg

<svg width="11" height="16" viewBox="0 0 11 16" fill="none" xmlns="http://www.w3.org/2000/svg">
<path fill-rule="evenodd" clip-rule="evenodd" d="M5.5,8.20712l-4.39644,4.39648l-0.70711,-0.7072l4.39644,-4.39639l-4.39645,-4.39645l0.7071,-0.70711l4.39646,4.39645l4.39646,-4.39645l0.70714,0.70711l-4.39649,4.39645l4.39639,4.39639l-0.70706,0.7072z" fill="black"/>
</svg>

<svg width="11" height="16" viewBox="0 0 11 16" fill="none" xmlns="http://www.w3.org/2000/svg">
<path fill-rule="evenodd" clip-rule="evenodd" d="M5.5 8.20712L1.10356 12.6036L0.396452 11.8964L4.79289 7.50001L0.396437 3.10356L1.10354 2.39645L5.5 6.7929L9.89646 2.39645L10.6036 3.10356L6.20711 7.50001L10.6035 11.8964L9.89644 12.6036L5.5 8.20712Z" fill="black"/>
</svg>
